assets/Snowboarder/Medium/Flat/snowboarder_flat_medium.svg

<svg width="32" height="32" viewBox="0 0 32 32" fill="none" xmlns="http://www.w3.org/2000/svg">
<path d="M23.5901 8.97998C23.5901 9.53227 23.1424 9.97998 22.5901 9.97998C22.0378 9.97998 21.5901 9.53227 21.5901 8.97998C21.5901 8.4277 22.0378 7.97998 22.5901 7.97998C23.1424 7.97998 23.5901 8.4277 23.5901 8.97998ZM14.07 16.79H14.04C9.53 16.79 5.19 18.58 2 21.77V30H29.98V9.69H28.7C26.35 9.69 24.12 10.77 22.66 12.62C20.59 15.25 17.42 16.79 14.07 16.79Z" fill="#B4F6FC"/>
<path d="M22.7099 24.24L9.71994 28.55C8.24994 29.04 6.65994 28.23 6.16994 26.75L6.14994 26.68C5.65994 25.2 6.45994 23.6 7.93994 23.11L20.9299 18.8C22.3999 18.31 23.9899 19.12 24.4799 20.6L24.4999 20.67C24.9799 22.15 24.1799 23.75 22.7099 24.24Z" fill="#8D65C5"/>
<path d="M17.5599 23.13C17.7799 23.58 18.2299 23.84 18.6999 23.84C18.8799 23.84 19.0698 23.8 19.2499 23.72C19.8799 23.41 20.1399 22.65 19.8299 22.02L18.9399 20.18C18.6299 19.54 17.8799 19.28 17.2499 19.59C16.6199 19.9 16.3599 20.66 16.6699 21.29L17.5599 23.13ZM11.5799 25.35C11.7999 25.8 12.2499 26.06 12.7199 26.06C12.9099 26.06 13.0999 26.02 13.2699 25.94C13.8999 25.63 14.1599 24.87 13.8499 24.24L12.9599 22.4C12.6499 21.76 11.8999 21.5 11.2699 21.81C10.6399 22.12 10.3799 22.88 10.6899 23.51L11.5799 25.35Z" fill="#00A6ED"/>
<path d="M17.5721 22.9314C17.4443 23.098 17.2054 23.1297 17.0387 23.002C16.8719 22.8742 16.8403 22.6354 16.9681 22.4686C16.9681 22.4686 16.9687 22.4678 16.9691 22.4673C16.9697 22.4666 16.9706 22.4654 16.9706 22.4654L16.9748 22.46L16.9886 22.4429C17 22.4288 17.0161 22.4094 17.0367 22.3857C17.0778 22.3383 17.1371 22.2732 17.2133 22.1979C17.3649 22.048 17.5871 21.854 17.8699 21.679C18.4372 21.328 19.2726 21.0415 20.2543 21.3804C20.4529 21.449 20.5583 21.6656 20.4897 21.8642C20.4212 22.0628 20.2046 22.1682 20.006 22.0996C19.3076 21.8585 18.713 22.0521 18.2703 22.326C18.0481 22.4635 17.8704 22.6182 17.7482 22.739C17.6875 22.799 17.6415 22.8497 17.6115 22.8843C17.5965 22.9015 17.5856 22.9147 17.579 22.9228L17.5721 22.9314ZM11.3919 25.0014C11.2641 25.168 11.0253 25.1997 10.8585 25.072C10.6918 24.9442 10.6602 24.7054 10.788 24.5386L10.789 24.5373L10.7904 24.5354L10.7946 24.53L10.8084 24.5129C10.8198 24.4988 10.836 24.4794 10.8565 24.4557C10.8977 24.4083 10.9569 24.3432 11.0331 24.2679C11.1847 24.118 11.407 23.924 11.6897 23.749C12.257 23.398 13.0924 23.1115 14.0741 23.4504C14.2727 23.519 14.3781 23.7356 14.3096 23.9342C14.241 24.1328 14.0244 24.2382 13.8258 24.1696C13.1274 23.9285 12.5329 24.1221 12.0901 24.396C11.8679 24.5335 11.6902 24.6882 11.568 24.809C11.5073 24.869 11.4613 24.9197 11.4313 24.9543C11.4164 24.9715 11.4055 24.9847 11.3988 24.9928L11.3919 25.0014Z" fill="#212121"/>
<path d="M20.8199 18.36L17.7699 13.87C17.3799 13.29 16.5899 13.14 16.0099 13.54C15.6099 13.82 15.4099 14.29 15.4699 14.74L14.6399 14.98C14.2799 14.55 13.6699 14.39 13.1399 14.64C12.5099 14.93 12.2299 15.69 12.5199 16.33L13.9299 19.4C13.9799 19.5 13.9499 19.62 13.8699 19.69L12.2099 21.18C11.6799 21.65 11.6199 22.49 12.0999 23.01C12.3499 23.28 12.6899 23.42 13.0299 23.42C13.3299 23.42 13.6299 23.31 13.8699 23.1L15.5499 21.58C16.4599 20.76 16.7299 19.45 16.2199 18.33L15.8399 17.49C15.7899 17.39 15.8499 17.27 15.9499 17.24C15.9499 17.24 16.3699 17.12 16.6299 17.04C16.7499 17.01 16.8699 17.05 16.9399 17.15L18.2299 19.04C17.7299 19.22 17.3699 19.7 17.3799 20.26C17.3899 20.96 17.9499 21.51 18.6399 21.51C18.6499 21.51 18.6499 21.51 18.6599 21.51L19.1499 21.5C19.8199 21.49 20.4499 21.17 20.8299 20.61C21.2899 19.94 21.2799 19.04 20.8199 18.36Z" fill="#9B9B9B"/>
<path d="M22.9899 15.0299H22.5399C21.2299 15.0299 20.0099 14.3699 19.2799 13.2799C19.2749 13.2749 19.2724 13.2699 19.2699 13.2649C19.2674 13.2599 19.2649 13.2549 19.2599 13.2499L18.2946 11.6935L18.4399 13.3199C18.4399 13.9699 18.0199 14.5399 17.4099 14.7199L13.6799 15.8899C12.7699 16.1599 11.8599 15.4699 11.8499 14.5199L12.2131 11.7847L10.8699 12.4299C10.7499 12.4899 10.6799 12.6099 10.6799 12.7399V14.2899C10.6699 14.9899 10.0999 15.5599 9.39989 15.5599C8.69989 15.5599 8.13989 14.9899 8.13989 14.2899V12.7399C8.13989 11.6299 8.77989 10.6099 9.76989 10.1299L13.0799 8.53994C13.7099 8.23994 14.4699 8.49994 14.7699 9.13994C14.8103 9.22472 14.8405 9.31186 14.861 9.39994H16.9925C16.9171 8.91179 17.1291 8.40641 17.5699 8.12994C18.1599 7.75994 18.9399 7.93994 19.3099 8.53994L21.3799 11.8899C21.6399 12.2699 22.0699 12.4999 22.5299 12.4999H22.9799C23.6799 12.4999 24.2399 13.0699 24.2399 13.7699C24.2599 14.4599 23.6899 15.0299 22.9899 15.0299Z" fill="#FF6723"/>
<path d="M16.5199 2.58997H14.5599C13.3599 2.58997 12.3799 3.56997 12.3799 4.77997V5.25997C12.3799 5.47997 12.5599 5.65997 12.7799 5.65997H14.6299V6.57997C14.6299 7.18997 15.1199 7.67997 15.7199 7.67997H18.0499C18.4099 7.67997 18.6999 7.38997 18.6999 7.01997V4.77997C18.6999 3.56997 17.7199 2.58997 16.5199 2.58997Z" fill="#5092FF"/>
<path d="M17.92 6.05002C18.1354 6.05002 18.31 5.87541 18.31 5.66002C18.31 5.44463 18.1354 5.27002 17.92 5.27002C17.7046 5.27002 17.53 5.44463 17.53 5.66002C17.53 5.87541 17.7046 6.05002 17.92 6.05002Z" fill="#0074BA"/>
<path d="M16.49 6.40002H18.71V7.06002H16.49V6.40002ZM13.6699 7.07002H14.9899V8.39002H13.6699V7.07002Z" fill="#1C1C1C"/>
<path d="M16.67 9.69H13.98C13.04 9.69 12.27 8.92 12.27 7.98V7.66H16.66C17.19 7.66 17.66 7.34 17.85 6.84L18.92 4.11C19.43 2.83 20.63 2 22 2H25.14C25.38 2 25.58 2.2 25.58 2.44V3.6C25.58 3.84 25.38 4.04 25.14 4.04H22C21.47 4.04 21 4.36 20.81 4.86L19.74 7.59C19.24 8.86 18.04 9.69 16.67 9.69Z" fill="#83CBFF"/>
<path d="M15.9799 5.66003H13.2199C12.6299 5.66003 12.1499 6.14003 12.1499 6.74003C12.1499 7.34003 12.6299 7.82003 13.2199 7.82003H13.2399C13.5199 7.82003 13.7699 7.65003 13.8699 7.39003L13.9399 7.22003C13.9999 7.08003 14.1299 6.99003 14.2899 6.99003C14.4399 6.99003 14.5799 7.08003 14.6399 7.22003L14.7099 7.39003C14.8099 7.65003 15.0599 7.82003 15.3399 7.82003H15.9799C16.5699 7.82003 17.0499 7.34003 17.0499 6.74003C17.0499 6.14003 16.5799 5.66003 15.9799 5.66003Z" fill="#26EAFC"/>
<path d="M11.8962 6.74002C11.8962 6.00147 12.4883 5.40637 13.2199 5.40637H15.9799C16.7231 5.40637 17.3035 6.00303 17.3035 6.74002C17.3035 7.47857 16.7115 8.07367 15.9799 8.07367H15.3399C14.9574 8.07367 14.6132 7.84162 14.4743 7.48406L14.4062 7.31875C14.3866 7.2743 14.3398 7.24367 14.2899 7.24367C14.2339 7.24367 14.1946 7.27083 14.1736 7.31866L14.1055 7.48407C13.9665 7.84163 13.6224 8.07367 13.2399 8.07367H13.2199C12.4883 8.07367 11.8962 7.47857 11.8962 6.74002ZM13.2199 5.91367C12.7715 5.91367 12.4035 6.27857 12.4035 6.74002C12.4035 7.20148 12.7715 7.56637 13.2199 7.56637H13.2399C13.4163 7.56637 13.5713 7.45971 13.6331 7.29897L13.6353 7.29342L13.7067 7.12009C13.8059 6.88872 14.0264 6.73637 14.2899 6.73637C14.5396 6.73637 14.7724 6.8852 14.873 7.1201L14.8745 7.12344L14.9467 7.29894C15.0085 7.45969 15.1634 7.56637 15.3399 7.56637H15.9799C16.4283 7.56637 16.7962 7.20148 16.7962 6.74002C16.7962 6.27701 16.4367 5.91367 15.9799 5.91367H13.2199Z" fill="#9B9B9B"/>
<path d="M28.91 19.07C28.91 19.8763 28.2563 20.53 27.45 20.53C26.6437 20.53 25.99 19.8763 25.99 19.07C25.99 18.2636 26.6437 17.61 27.45 17.61C28.2563 17.61 28.91 18.2636 28.91 19.07ZM6.62012 19.46C6.62012 20.0123 6.1724 20.46 5.62012 20.46C5.06783 20.46 4.62012 20.0123 4.62012 19.46C4.62012 18.9077 5.06783 18.46 5.62012 18.46C6.1724 18.46 6.62012 18.9077 6.62012 19.46Z" fill="white"/>
<path d="M23.81 12.84H25.45C26 12.84 26.44 13.28 26.43 13.82C26.43 14.37 25.99 14.81 25.44 14.81H24.77C24.88 14.98 24.87 15.21 24.72 15.36C24.64 15.45 24.53 15.49 24.42 15.49C24.31 15.49 24.2 15.44 24.12 15.36L23.41 14.65C23.33 14.56 23.29 14.45 23.29 14.33V14.3V13.36C23.29 13.07 23.52 12.84 23.81 12.84ZM9.39989 15.56C8.69989 15.56 8.13989 14.99 8.13989 14.29V13.91C7.63445 13.9155 7.21997 14.3333 7.21997 14.84V15.63C7.21997 16.14 7.63997 16.56 8.14997 16.56H8.91997C9.17882 16.56 9.41449 16.4518 9.58383 16.2785C9.75393 16.1096 9.85989 15.8761 9.85989 15.62V15.4737C9.71709 15.5294 9.56198 15.56 9.39989 15.56Z" fill="#C68D7B"/>
</svg>

<svg xmlns="http://www.w3.org/2000/svg" width="32" height="32" fill="none"><path fill="#B4F6FC" d="M23.59 8.98a1 1 0 1 1-2 0 1 1 0 0 1 2 0Zm-9.52 7.81h-.03c-4.51 0-8.85 1.79-12.04 4.98V30h27.98V9.69H28.7c-2.35 0-4.58 1.08-6.04 2.93a10.94 10.94 0 0 1-8.59 4.17Z"/><path fill="#8D65C5" d="M22.71 24.24 9.72 28.55c-1.47.49-3.06-.32-3.55-1.8l-.02-.07c-.49-1.48.31-3.08 1.79-3.57l12.99-4.31c1.47-.49 3.06.32 3.55 1.8l.02.07c.48 1.48-.32 3.08-1.79 3.57Z"/><path fill="#00A6ED" d="M17.56 23.13c.22.45.67.71 1.14.71.18 0 .37-.04.55-.12.63-.31.89-1.07.58-1.7l-.89-1.84c-.31-.64-1.06-.9-1.69-.59a1.27 1.27 0 0 0-.58 1.7l.89 1.84Zm-5.98 2.22c.22.45.67.71 1.14.71.19 0 .38-.04.55-.12.63-.31.89-1.07.58-1.7l-.89-1.84c-.31-.64-1.06-.9-1.69-.59a1.27 1.27 0 0 0-.58 1.7l.89 1.84Z"/><path fill="#212121" d="M17.572 22.931a.38.38 0 0 1-.604-.462l.001-.002.002-.002.004-.005.014-.017a3.375 3.375 0 0 1 .225-.245c.15-.15.373-.344.656-.519.567-.351 1.403-.637 2.384-.299a.38.38 0 0 1-.248.72c-.698-.242-1.293-.048-1.736.226a2.997 2.997 0 0 0-.691.597l-.007.008Zm-6.18 2.07a.38.38 0 0 1-.604-.462l.001-.002.001-.002.005-.005.013-.017.049-.057a3.76 3.76 0 0 1 .833-.707c.567-.351 1.402-.638 2.384-.299a.38.38 0 0 1-.248.72c-.699-.242-1.293-.048-1.736.226a2.997 2.997 0 0 0-.659.558l-.032.039-.007.008Z"/><path fill="#9B9B9B" d="m20.82 18.36-3.05-4.49c-.39-.58-1.18-.73-1.76-.33-.4.28-.6.75-.54 1.2l-.83.24c-.36-.43-.97-.59-1.5-.34-.63.29-.91 1.05-.62 1.69l1.41 3.07c.05.1.02.22-.06.29l-1.66 1.49c-.53.47-.59 1.31-.11 1.83.25.27.59.41.93.41.3 0 .6-.11.84-.32l1.68-1.52c.91-.82 1.18-2.13.67-3.25l-.38-.84c-.05-.1.01-.22.11-.25 0 0 .42-.12.68-.2.12-.03.24.01.31.11l1.29 1.89c-.5.18-.86.66-.85 1.22.01.7.57 1.25 1.26 1.25h.02l.49-.01c.67-.01 1.3-.33 1.68-.89.46-.67.45-1.57-.01-2.25Z"/><path fill="#FF6723" d="M22.99 15.03h-.45c-1.31 0-2.53-.66-3.26-1.75-.005-.005-.008-.01-.01-.015-.003-.005-.005-.01-.01-.015l-.965-1.556.145 1.626c0 .65-.42 1.22-1.03 1.4l-3.73 1.17c-.91.27-1.82-.42-1.83-1.37l.363-2.735-1.343.645c-.12.06-.19.18-.19.31v1.55c-.01.7-.58 1.27-1.28 1.27-.7 0-1.26-.57-1.26-1.27v-1.55c0-1.11.64-2.13 1.63-2.61l3.31-1.59a1.263 1.263 0 0 1 1.781.86h2.131a1.268 1.268 0 0 1 .578-1.27c.59-.37 1.37-.19 1.74.41l2.07 3.35c.26.38.69.61 1.15.61h.45c.7 0 1.26.57 1.26 1.27.02.69-.55 1.26-1.25 1.26Z"/><path fill="#5092FF" d="M16.52 2.59h-1.96c-1.2 0-2.18.98-2.18 2.19v.48c0 .22.18.4.4.4h1.85v.92c0 .61.49 1.1 1.09 1.1h2.33c.36 0 .65-.29.65-.66V4.78c0-1.21-.98-2.19-2.18-2.19Z"/><path fill="#0074BA" d="M17.92 6.05a.39.39 0 1 0 0-.78.39.39 0 0 0 0 .78Z"/><path fill="#1C1C1C" d="M16.49 6.4h2.22v.66h-2.22V6.4Zm-2.82.67h1.32v1.32h-1.32V7.07Z"/><path fill="#83CBFF" d="M16.67 9.69h-2.69c-.94 0-1.71-.77-1.71-1.71v-.32h4.39c.53 0 1-.32 1.19-.82l1.07-2.73C19.43 2.83 20.63 2 22 2h3.14c.24 0 .44.2.44.44V3.6c0 .24-.2.44-.44.44H22c-.53 0-1 .32-1.19.82l-1.07 2.73c-.5 1.27-1.7 2.1-3.07 2.1Z"/><path fill="#26EAFC" d="M15.98 5.66h-2.76c-.59 0-1.07.48-1.07 1.08 0 .6.48 1.08 1.07 1.08h.02c.28 0 .53-.17.63-.43l.07-.17a.383.383 0 0 1 .7 0l.07.17c.1.26.35.43.63.43h.64c.59 0 1.07-.48 1.07-1.08 0-.6-.47-1.08-1.07-1.08Z"/><path fill="#9B9B9B" d="M11.896 6.74c0-.739.592-1.334 1.324-1.334h2.76a1.32 1.32 0 0 1 1.323 1.334c0 .739-.591 1.334-1.323 1.334h-.64a.926.926 0 0 1-.866-.59l-.068-.165a.129.129 0 0 0-.116-.075.119.119 0 0 0-.116.075l-.069.165a.926.926 0 0 1-.865.59h-.02a1.327 1.327 0 0 1-1.324-1.334Zm1.324-.826a.82.82 0 0 0-.817.826.82.82 0 0 0 .817.826h.02a.419.419 0 0 0 .393-.267l.002-.006.072-.173a.636.636 0 0 1 1.166 0l.002.003.072.176c.062.16.216.267.393.267h.64a.82.82 0 0 0 .816-.826.813.813 0 0 0-.816-.826h-2.76Z"/><path fill="#fff" d="M28.91 19.07a1.46 1.46 0 1 1-2.92 0 1.46 1.46 0 0 1 2.92 0Zm-22.29.39a1 1 0 1 1-2 0 1 1 0 0 1 2 0Z"/><path fill="#C68D7B" d="M23.81 12.84h1.64c.55 0 .99.44.98.98 0 .55-.44.99-.99.99h-.67c.11.17.1.4-.05.55-.08.09-.19.13-.3.13-.11 0-.22-.05-.3-.13l-.71-.71a.472.472 0 0 1-.12-.32v-.97c0-.29.23-.52.52-.52ZM9.4 15.56c-.7 0-1.26-.57-1.26-1.27v-.38a.935.935 0 0 0-.92.93v.79c0 .51.42.93.93.93h.77a.927.927 0 0 0 .664-.281.927.927 0 0 0 .276-.659v-.146a1.263 1.263 0 0 1-.46.086Z"/></svg>
